icon/ir/data-transfer-check.svg

<svg width="24" height="24" stroke-width="1.5" fill="none" xmlns="http://www.w3.org/2000/svg"><path d="m14 19 3 3 5-5M17 14V4m0 0 3 3m-3-3-3 3M7 4v16m0 0 3-3m-3 3-3-3" stroke="currentColor" stroke-linecap="round" stroke-linejoin="round"/></svg>

<svg stroke-width="1.5" viewBox="0 0 24 24" fill="none" xmlns="http://www.w3.org/2000/svg" height="1em" width="1em">
  <path d="M14 19L17 22L22 17" stroke="currentColor" stroke-linecap="round" stroke-linejoin="round"/>
  <path d="M17 14V4M17 4L20 7M17 4L14 7" stroke="currentColor" stroke-linecap="round" stroke-linejoin="round"/>
  <path d="M7 4V20M7 20L10 17M7 20L4 17" stroke="currentColor" stroke-linecap="round" stroke-linejoin="round"/>
</svg>
